!!!OTL: Rundgesang (3-30), S. 76f
!!!id: K1164
**kern
*clefG2
*k[b-]
*F:
{16f
=1
16f
4f
8f
8f
=2
4f
4c
=3
4f
4g
=4
2a}
=5
{4a
8g
8a
=6
4b-
4a
=7
4g
4g
=8
2f}
=9
{4cc
8a
8cc
=10
4b-
8g
8b-
=11
4a
8f
8a
=12
4g
4c}
=13
{4cc
8a
8cc
=14
4b-
8g
8b-
=15
4a
8f
8a
=16
4g
4c}
=17
{8.f
16f
8f
8f
=18
4f
4c
=19
8.a
16a
8a
8a
=20
4a
4f}
=21
{4cc
4a
=22
4cc
4a}
=23
{8.cc
16cc
8cc
8cc
=24
8dd
8dd
4cc
=25
8dd
8dd
4cc}
=26
{8b-
8b-
8a
8a
=27
8g
8g
4f}
==
*-
!!!minrhy: 16
!!!meters: 2/4 ]  ZZ[8
!!!cut: Rundgesang (3-30), S. 76f
!!!reg: Luxemburg
!!!trd: KINTZELE, Guillaume: An der Ucht, Bd. 3 Luxemburg 1928
!!!rhy1:   X__X_X_  X__X__  X__X__  X___   (x2)
!!!rhy2: X__X_X_  X__X__  X__X__  X___
!!!key: K1164  16  F 2/4 ]  ZZ[8
!!!mod: SECHSTONSKALA DUR ?]  AMBITUS[9
!!!kad: 31-5-51351
!!!akz: 1113_3421_5432_5432_1133_55_566_42_
!!!fot: 'a__b__c__c__d__e__f__g__
!!!for: 'a__a__b__b__c__d__e__f__
!!!fok: 'Va_\__\__\__S__\__-__\__
!! PHRAS[VOLLTAKTIG]
!!!fkt: Soldatenlied, Spiel- und Trinklied
!!!bem: in der Quelle mit einer 2. Stimme versehen
!! KINTZELE
!! PR[33] 2K[5] 2G[5] 3K[7] 3G[12] 4A[10] 4Ü[0] 5A[0] 6K[0] 6G[0]
!! 7K[0] 7G[0] 8A[0] MEHR[0] SI[38] ABS[42] SR[10] SP[29]
!! ST[16] 2k[0] 2g[7] 3k[10] 3g[2] 4d[2] 4ü[0] 5d[5] 6k[0] 6g[2]
!! 7k[0] 7g[0] 8d[0] mehr[0] si[29] dm[+9] sr[7] sp[21]
!! 1F[23] 2F[51] 3F[21] 4F[0] LF[0] 2P[5] 3P[0] 4P[0] TRI[0] DF[4] AB[43]
!! TF[0] U3K[0] U3[0] U4[0] U4Ü[0] U5[7] U6K[0] U6[0] U7K[0] U7[0]
!! N1[30] N2K[0] N2[12] N3K[0] N3[26] N4[5] N4Ü[0] N5[19] N6K[0] N6[2]
!!!n7k: 0] N7[0] O1[0] O2K[0] O2[0] O3K[0] O3[0] HÖ[0
